!!!AGN: Motet
!!!SCT: Sherr (1990)
!!!voices: 4
!!!COM: Maistre Jan
!!!OTL: Ave gloriose beatissime Antoni
**kern	**kern	**kern	**kern
*part4	*part3	*part2	*part1
*staff4	*staff3	*staff2	*staff1
*I"Bassus	*I"Tenor	*I"Altus	*I"Superius
*I'B	*I'T	*I'A	*I'S
*clefF4	*clefGv2	*clefG2	*clefG2
*k[b-]	*k[b-]	*k[b-]	*k[b-]
*F:	*F:	*F:	*F:
*M2/1	*M2/1	*M2/1	*M2/1
*met(C|)	*met(C|)	*met(C|)	*met(C|)
!!section: Prima pars: Ave gloriose beatissime Antoni
!!!OMD: Prima pars: Ave gloriose beatissime Antoni
0G	0G	0d	0g
=1	=1	=1	=1
0C	0c	0e	0g
=2	=2	=2	=2
1.G	1.B-y	1.d	1.g
2G	2B-y	2d	2g
=3	=3	=3	=3
0G	0d	0g	0b-y
=4	=4	=4	=4
1D	1d	1f	1a
[1D	[1d	[1f	[1a
=5	=5	=5	=5
1D]	1d]	1f]	1a]
1G	1d	1g	1b-y
=6	=6	=6	=6
1.F	1.f	1.a	1.cc
2F	2f	2a	2cc
=7	=7	=7	=7
1F	1f	1a	1cc
1F	2c	1a	1cc
.	[2f	.	.
=8	=8	=8	=8
0B-y	4f]	1.f	0dd
.	4e	.	.
.	4d	.	.
.	4c	.	.
.	1d	.	.
.	.	2g	.
=9	=9	=9	=9
1A	1e	1a	1cc
1r	1r	1r	1r
=10	=10	=10	=10
0A	0c	0e	0a
=11	=11	=11	=11
1G	1d	1g	1b-y
1F	1f	1a	1cc
=12	=12	=12	=12
1.B-y	1.f	1.b-y	1.dd
2B-y	2f	2b-y	2dd
=13	=13	=13	=13
1G	1g	1b-y	1dd
1G	1g	1b-y	1dd
=14	=14	=14	=14
1A	1e	1a	1cc
1F	1a	1cc	2.ff
.	.	.	8eeL
.	.	.	8ddJ
=15	=15	=15	=15
1G	2.g	1b-y	2ee
.	.	.	1dd
.	4f	.	.
1A	1e	2a	.
.	.	2a	2cc#i
=16	=16	=16	=16
2.D	1d	2r	1dd
.	.	2a	.
4E	.	.	.
2F	2c	2a	2r
2D	[2d	2a	2dd
=17	=17	=17	=17
1D	4d]	2f	2dd
.	4c	.	.
.	4B-y	2.g	2dd
.	4A	.	.
2r	1G	.	2b-y
.	.	4a	.
2G	.	[2b-y	[2dd
=18	=18	=18	=18
2G	2r	4b-]	4dd]
.	.	4a	4cc
2G	2d	1g	2b-y
1D	2d	.	1a
.	2d	2f#i	.
=19	=19	=19	=19
1G	2B-y	2.d	1g
.	2.d	.	.
.	.	4e	.
2F	.	2.f	1r
.	4e	.	.
2D	[2f	.	.
.	.	4e	.
=20	=20	=20	=20
2.F	4f]	4d	2r
.	4e	4c	.
.	1d	2f	2a
4G	.	.	.
1A	.	1e	2a
.	2c	.	2a
=21	=21	=21	=21
2D	2A	2d	2f
2C	1c	2e	2.g
[1G	.	[1d	.
.	.	.	4a
.	2B-y	.	[2b-y
=22	=22	=22	=22
1G]	2G	0d_	4b-]
.	.	.	4a
.	2B-y	.	1g
1D	1A	.	.
.	.	.	2f#i
=23	=23	=23	=23
1G	1G	1d]	1g
1G	1B-y	1d	1g
=24	=24	=24	=24
1.F	1.c	1.f	1.a
2F	2c	2f	2a
=25	=25	=25	=25
1F	1c	1f	1a
[1F	[1f	[1a	[1cc
=26	=26	=26	=26
1F]	2f]	1a]	1cc]
.	2e	.	.
1G	[1d	1g	1b-y
=27	=27	=27	=27
0A	2d]	0e	0a
.	4c#i	.	.
.	4BnXi	.	.
.	1c#i	.	.
=28	=28	=28	=28
0D	1d	0f	1a
.	4d	.	2r
.	4c	.	.
.	4d	.	[2a
.	4e	.	.
=29	=29	=29	=29
0r	2.f	2r	2a]
.	.	1d	2a
.	4e	.	.
.	2d	.	2b-y
.	2c	2e	2cc
=30	=30	=30	=30
0r	2.B-y	2f	1dd
.	.	2g	.
.	4A	.	.
.	1F	1a	2cc
.	.	.	[2ff
=31	=31	=31	=31
2r	0r	2d	4ff]
.	.	.	4ee
1D	.	1f	2.dd
.	.	.	4cc
2E	.	2e	[2cc
=32	=32	=32	=32
2F	1r	1d	2cc]
2G	.	.	2bnXi
1A	2r	1c	1cc
.	[2A	.	.
=33	=33	=33	=33
2D	2A]	1d	0r
1D	2A	.	.
.	2B-y	1r	.
2E	2c	.	.
=34	=34	=34	=34
2F	1d	1r	1r
2G	.	.	.
1A	2c	1a	1cc
.	[2f	.	.
=35	=35	=35	=35
2D	4f]	2f	1dd
.	4e	.	.
2G	2.d	2g	.
2.F	.	[1a	[1ff
.	4c	.	.
.	[2c	.	.
4E	.	.	.
=36	=36	=36	=36
1D	2c]	2a]	1ff]
.	2BnXi	4g	.
.	.	4f	.
1C	1c	2a	2ee
.	.	2g	2cc
=37	=37	=37	=37
1F	1A	2r	2cc
.	.	2f	2cc
1r	1B-y	2f	1dd
.	.	2g	.
=38	=38	=38	=38
1r	2r	2a	1ff
.	2B-y	2b-y	.
2r	2c	1g	2ee
2G	2d	.	[2dd
=39	=39	=39	=39
2G	2e	1r	2dd]
2A	2f	.	2cc
2B-y	2d	2r	2dd
2c	2e	2g	[2cc
=40	=40	=40	=40
1G	2d	2g	4cc]
.	.	.	8b-yL
.	.	.	8aJ
.	2d	2g	2b-y
1c	2.e	1g	2cc
.	.	.	2cc
.	4d	.	.
=41	=41	=41	=41
2A	2e	1a	2cc
2F	2f	.	2cc
1B-y	[1d	[1f	2dd
.	.	.	[2ff
=42	=42	=42	=42
1B-y	1d]	2f]	4ff]
.	.	.	4ee
.	.	2g	1dd
1A	1e	[1a	.
.	.	.	2cc#i
=43	=43	=43	=43
0D	2r	1a]	1dd
.	2d	.	.
.	[1d	1a	1r
=44	=44	=44	=44
0r	2d]	1.a	1dd
.	2c	.	.
.	2B-y	.	[1dd
.	2B-y	2g	.
=45	=45	=45	=45
0r	1A	2f	2dd]
.	.	2e	2cc
.	1r	1d	2b-y
.	.	.	2a
=46	=46	=46	=46
1G	1r	1d	2g
.	.	.	2g
[1G	1d	2g	[1b-y
.	.	2g	.
=47	=47	=47	=47
2G]	1.d	2G	2b-]
2F	.	2A	2a
2E	.	4B-y	1g
.	.	4G	.
2E	2c	[2g	.
=48	=48	=48	=48
2D	2B-y	2g]	0dd
2D	2A	2f#i	.
[1B-y	2G	1g	.
.	2G	.	.
=49	=49	=49	=49
2B-]	1.B-y	1d	0dd
2A	.	.	.
2G	.	2r	.
2F	2A	2d	.
=50	=50	=50	=50
1E	1G	2d	1ee
.	.	2c#i	.
[1D	2r	1d	1ff
.	2A	.	.
=51	=51	=51	=51
1D]	2A	1.f	0dd
.	2A	.	.
2r	1d	.	.
2G	.	2g	.
=52	=52	=52	=52
2G	2G	1b-y	2r
2G	2.g	.	2dd
1d	.	1a	1dd
.	8f#iL	.	.
.	8eJ	.	.
.	2f#i	.	.
=53	=53	=53	=53
2G	2g	2r	2b-y
1c	2e	2g	2cc
.	1d	1g	2.dd
2B-y	.	.	.
.	.	.	4b-y
=54	=54	=54	=54
1A	2r	2e	1cc
.	2c	2f	.
1G	1d	2g	2b-y
.	.	[2b-y	[2dd
=55	=55	=55	=55
0r	2B-y	4b-]	2dd]
.	.	4a	.
.	2c	1g	4cc
.	.	.	4b-y
.	1d	.	1a
.	.	2f#i	.
=56	=56	=56	=56
1d	1G	1g	1b-y
1d	4G	1r	1g
.	4A	.	.
.	4B-y	.	.
.	4c	.	.
=57	=57	=57	=57
2B-y	2d	2r	1r
2c	2e	1a	.
[1d	1f	.	[1dd
.	.	2a	.
=58	=58	=58	=58
2d]	2r	2f	1dd]
2G	1g	2g	.
1d	.	1a	1dd
.	2f	.	.
=59	=59	=59	=59
2r	2g	1g	2b-y
1c	2e	.	2cc
.	1d	2g	1dd
2B-y	.	2g	.
=60	=60	=60	=60
2c	2r	2e	1r
2A	2c	2f	.
1G	2d	2.g	1b-y
.	[2d	.	.
.	.	4a	.
=61	=61	=61	=61
1G	2d]	4b-y	1dd
.	.	4g	.
.	2.g	2b-y	.
2d	.	2a	[1dd
.	4f	.	.
2d	[2f	2a	.
=62	=62	=62	=62
2.B-y	2f]	2b-y	1dd]
.	2d	2.b-y	.
4c	.	.	.
2d	2f	.	2b-y
.	.	4a	.
2e-i	2g	[2g	2cc
=63	=63	=63	=63
1d	1a	2g]	0dd
.	.	2f	.
1G	1g	1b-y	.
=64	=64	=64	=64
0G	0d	0g	0b-y
=65	=65	=65	=65
1G	1e-X	1g	1b-y
1G	1d	1g	1b-y
=66	=66	=66	=66
2.F	1f	0a	0cc
4G	.	.	.
1A	1e	.	.
=67	=67	=67	=67
2D	2.d	2.f	1a
1d	.	.	.
.	8cL	4d	.
.	8B-yJ	.	.
.	1A	[1e	1a
4c	.	.	.
4B-y	.	.	.
=68	=68	=68	=68
1c	1r	1e]	2g
.	.	.	2a
1B-y	1d	1f	2b-y
.	.	.	[2dd
=69	=69	=69	=69
2B-y	1B-y	2d	4dd]
.	.	.	4cc
2G	.	2e	1b-y
1F	1c	1f	.
.	.	.	2a
=70	=70	=70	=70
1B-y	1d	1f	2b-y
.	.	.	2f
2r	2c	1r	2g
2F	2A	.	2a
=71	=71	=71	=71
2G	2.B-y	2r	2d
2G	.	1g	1b-y
.	4c	.	.
1D	1d	.	.
.	.	2f	2a
=72	=72	=72	=72
2r	0r	2e	2g
2F	.	1d	2f
2G	.	.	1e
2A	.	2c#i	.
=73	=73	=73	=73
2D	2r	1d	1d
1B-y	1f	.	.
.	.	1r	1r
2A	2f	.	.
=74	=74	=74	=74
2G	2e	1g	0r
2F	1d	.	.
1E	.	2g	.
.	2c#i	2g	.
=75	=75	=75	=75
1D	2.d	1f	1dd
.	4c	.	.
1r	2B-y	2d	2dd
.	2A	[2f	2cc
=76	=76	=76	=76
1r	0B-y	2f]	1dd
.	.	4e	.
.	.	4d	.
1G	.	2e	2g
.	.	[2d	[2b-y
=77	=77	=77	=77
2G	1d	4d]	4b-]
.	.	4c	4a
2F	.	2A	1a
1G	2d	2.B-y	.
.	2d	.	2g
.	.	4c	.
=78	=78	=78	=78
1D	1f	1d	1a
1G	2e	2G	2r
.	[2d	2g	2dd
=79	=79	=79	=79
1D	4d]	2g	2dd
.	4c	.	.
.	2A	2f	2dd
1r	1B-y	1g	2dd
.	.	.	2ee
=80	=80	=80	=80
0r	2r	2d	2.ff
.	2d	2.f	.
.	.	.	4ee
.	2d	.	2.dd
.	.	4g	.
.	2d	[2a	.
.	.	.	4cc
=81	=81	=81	=81
1r	2d	2a]	1b-y
.	2e	2g	.
2r	2.f	2a	2a
2D	.	[2b-y	[2dd
.	4e	.	.
=82	=82	=82	=82
2D	2.d	4b-]	4dd]
.	.	4a	4ee
2D	.	1a	1ff
.	4c	.	.
2D	1B-y	.	.
2E	.	2g	4ee
.	.	.	4dd
=83	=83	=83	=83
2F	2A	0a	2cc
2D	2d	.	2.ff
2.F	2c	.	.
.	.	.	4ee
.	2f	.	[2dd
4G	.	.	.
=84	=84	=84	=84
1A	1e	2r	2dd]
.	.	2a	2cc#i
[1D	2d	2f	1dd
.	[2g	2b-y	.
=85	=85	=85	=85
1D]	4g]	1a	2r
.	8f#iL	.	.
.	8eJ	.	.
.	2f#i	.	2dd
1r	2g	2.g	2b-y
.	2c	.	[2ee-i
.	.	4a	.
=86	=86	=86	=86
1r	1d	2.f	4ee-]
.	.	.	4dd
.	.	.	1dd
.	.	8eL	.
.	.	8dJ	.
2r	2.A	1e	.
2A	.	.	2cc
.	4B-y	.	.
=87	=87	=87	=87
2F	2c	2f	2a
2B-y	1d	2.g	2b-y
1A	.	.	1cc
.	.	8f#iL	.
.	.	8eJ	.
.	2c	2f#i	.
=88	=88	=88	=88
1G	0d	1g	2.b-y
.	.	.	8aL
.	.	.	8gJ
2r	.	2f	2a
2G	.	2g	2g
=89	=89	=89	=89
2G	2r	2.d	2.b-y
2G	2d	.	.
.	.	4e	4cc
2D	2d	1f	1dd
[2B-y	2d	.	.
=90	=90	=90	=90
4B-]	2G	0r	2r
4A	.	.	.
2G	2B-y	.	2dd
2F	2A	.	2dd
2D	[2d	.	2dd
=91	=91	=91	=91
1E	4d]	2r	2g
.	8c#iL	.	.
.	8BnXiJ	.	.
.	4c#i	2g	2g
.	4Bni	.	.
1D	1d	2g	2a
.	.	2f	[2dd
=92	=92	=92	=92
1r	1r	2d	4dd]
.	.	.	8cc#iL
.	.	.	8bnXiJ
.	.	2e	2cc#i
[1D	[1A	2f	1dd
.	.	[2g	.
=93	=93	=93	=93
2D]	2A]	4g]	1.dd
.	.	8fL	.
.	.	8eJ	.
2D	2A	2f	.
1G	1B-y	2g	.
.	.	[2g	2dd
=94	=94	=94	=94
1G	1B-y	2g]	2b-y
.	.	2g	2b-y
[1C	2A	2e	2.cc
.	2G	2c	.
.	.	.	4b-y
=95	=95	=95	=95
1C]	1c	1e	2a
.	.	.	2g
[1D	[1A	[1d	[1f
=96	=96	=96	=96
1D]	1A]	1d]	1f]
[1D	[1A	[1f	1r
=97	=97	=97	=97
2D]	2A]	2f]	1.dd
2D	2A	2f	.
1G	1B-y	1g	.
.	.	.	2dd
=98	=98	=98	=98
1G	1B-y	1g	2b-y
.	.	.	2b-y
[1C	2A	2e	2.cc
.	2G	2c	.
.	.	.	4b-y
=99	=99	=99	=99
1C]	1c	1e	2a
.	.	.	2g
[1D	2A	[1d	2f
.	[2a	.	[2ff
=100	=100	=100	=100
1D]	2a]	1d]	4ff]
.	.	.	4ee
.	2f	.	4dd
.	.	.	4cc
2r	2g	1r	2b-y
[2d	2a	.	4a
.	.	.	4g
=101	=101	=101	=101
2d]	1d	2r	2f
2B-y	.	1g	2d
2c	2r	.	2r
2d	[2B-y	2f	[2dd
=102	=102	=102	=102
2G	4B-]	2g	2dd]
.	4c	.	.
2G	4d	2g	2b-y
.	4e	.	.
2F	2.f	1a	2cc
2D	.	.	2dd
.	4e	.	.
=103	=103	=103	=103
1.G	4d	2b-y	2g
.	4c	.	.
.	2d	1g	1b-y
.	2B-y	.	.
2D	2d	[2f	[2a
=104	=104	=104	=104
2F	2c	4f]	4a]
.	.	4e	4g
2G	2B-y	4d	1g
.	.	4c	.
1D	1A	1d	.
.	.	.	2f#i
=105	=105	=105	=105
2r	0G	1B-y	0g
1d	.	.	.
.	.	2r	.
2B-y	.	[2g	.
=106	=106	=106	=106
2c	0r	2g]	2r
2d	.	2f	1dd
2G	.	2g	.
2G	.	2g	2b-y
=107	=107	=107	=107
2F	2r	2a	2cc
2D	1d	2A	2dd
1G	.	4B-y	2g
.	.	4c	.
.	2B-y	4d	[2b-y
.	.	4e	.
=108	=108	=108	=108
1F	2c	1f	2b-]
.	2d	.	2a
2r	2G	2d	2b-y
2D	2d	[2f	[2a
=109	=109	=109	=109
2F	4c	4f]	4a]
.	4B-y	4e	4g
2G	4A	4d	1g
.	4G	4c	.
1D	1A	1d	.
.	.	.	2f#i
=110	=110	=110	=110
00Gl	00Gl	00dl	00gl
==	==	==	==
*-	*-	*-	*-
!!!system-decoration: [*]
!!!RDF**kern: i = editorial accidental
!!!RDF**kern: l = terminal long
!!!ENC: Benjamin Ory
!!!END: 2021/5/15
!!!EED: Benjamin Ory
!!!EEV: 2021/05/15
!!!YEC: Copyright 2021 Benjamin Ory, All Rights Reserved
!!!ONB: Translated from MusicXML on 2021/05/15